svg/device/shower_fill.svg

<svg xmlns="http://www.w3.org/2000/svg" width="24" height="24" viewBox="0 0 24 24"><g fill="none"><path d="M24,0 L24,24 L0,24 L0,0 L24,0 Z M12.5935,23.2578 L12.5819,23.2595 L12.5109,23.295 L12.4919,23.2987 L12.4767,23.295 L12.4057,23.2595 C12.3958,23.2564 12.387,23.259 12.3821,23.2649 L12.378,23.2758 L12.3609,23.7031 L12.3659,23.7235 L12.3769,23.7357 L12.4805,23.8097 L12.4953,23.8136 L12.5071,23.8097 L12.6107,23.7357 L12.6233,23.7197 L12.6267,23.7031 L12.6096,23.2758 C12.6076,23.2657 12.601,23.2593 12.5935,23.2578 Z M12.8584,23.1453 L12.8445,23.1473 L12.6598,23.2397 L12.6499,23.2499 L12.6472,23.2611 L12.6651,23.6906 L12.6699,23.7034 L12.6784,23.7105 L12.8793,23.8032 C12.8914,23.8069 12.9022,23.803 12.9078,23.7952 L12.9118,23.7812 L12.8777,23.1665 C12.8753,23.1546 12.8674,23.147 12.8584,23.1453 Z M12.143,23.1473 C12.1332,23.1424 12.1222,23.1453 12.1156,23.1526 L12.1099,23.1665 L12.0758,23.7812 C12.0751,23.7927 12.0828,23.8019 12.0926,23.8046 L12.1083,23.8032 L12.3092,23.7105 L12.3186,23.7024 L12.3225,23.6906 L12.3404,23.2611 L12.3372,23.2485 L12.3278,23.2397 L12.143,23.1473 Z"/><path fill="#09244B" d="M12.4093,3.6535 C13.8425767,2.089327 16.2157176,1.80359548 17.9810148,2.99279044 L18.1614,3.12108 L18.4842,3.36323 C19.3788562,4.03419875 19.928366,5.06333938 19.99356,6.17222261 L20.0001,6.39498 L20.0001,21.0001 C20.0001,21.5524 19.5524,22.0001 19.0001,22.0001 C18.48725,22.0001 18.0645908,21.614073 18.0068275,21.1167239 L18.0001,21.0001 L18.0001,6.39498 C18.0001,5.887992 17.785288,5.4076368 17.4137653,5.07024093 L17.2842,4.96323 L16.9614,4.72108 C16.1859937,4.13952063 15.1599234,4.11959992 14.3769146,4.5986299 L14.2237,4.70107 L14.9821,5.13893 C16.8335839,6.20786871 17.5072009,8.53342657 16.547619,10.4162558 L16.4462,10.603 L15.9462,11.4691 C15.6898214,11.9132357 15.1441597,12.0861954 14.6845623,11.8875768 L14.5802,11.8351 L5.91997,6.83508 C5.47583429,6.57866429 5.30281423,6.03300852 5.50145622,5.57342019 L5.55394,5.46906 L6.05394,4.60303 C7.12287871,2.75157516 9.44843657,2.07795903 11.3312567,3.03751376 L11.518,3.13893 L12.4093,3.6535 Z M6.7501,15.3972 C7.22839,15.6734 7.39227,16.285 7.11612,16.7632 L6.61612,17.6293 C6.33998,18.1076 5.72839,18.2714 5.2501,17.9953 C4.77181,17.7192 4.60793,17.1076 4.88407,16.6293 L5.38407,15.7632 C5.66022,15.285 6.27181,15.1211 6.7501,15.3972 Z M8.98215,15.5312 C9.25829,15.0529 9.86988,14.889 10.3482,15.1652 C10.7923357,15.4215786 10.9652954,15.9672403 10.7666768,16.4268377 L10.7142,16.5312 L10.2142,17.3972 C9.93806,17.8755 9.32647,18.0394 8.84818,17.7632 C8.40404429,17.5068214 8.23102423,16.9611597 8.42966622,16.5015623 L8.48215,16.3972 L8.98215,15.5312 Z M5.15202,12.1652 C5.63032,12.4413 5.79419,13.0529 5.51805,13.5312 L5.01805,14.3972 C4.74191,14.8755 4.13032,15.0394 3.65202,14.7632 C3.17373,14.4871 3.00985,13.8755 3.286,13.3972 L3.786,12.5312 C4.06214,12.0529 4.67373,11.889 5.15202,12.1652 Z M8.7501,11.9331 C9.22839,12.2093 9.39227,12.8209 9.11612,13.2991 L8.61612,14.1652 C8.33998,14.6435 7.72839,14.8073 7.2501,14.5312 C6.77181,14.2551 6.60793,13.6435 6.88407,13.1652 L7.38407,12.2991 C7.66022,11.8209 8.27181,11.657 8.7501,11.9331 Z M10.9821,12.0671 C11.2583,11.5888 11.8699,11.4249 12.3482,11.7011 C12.7923357,11.9574786 12.9652954,12.5031403 12.7666768,12.9627377 L12.7142,13.0671 L12.2142,13.9331 C11.9381,14.4114 11.3265,14.5753 10.8482,14.2991 C10.4040643,14.0427214 10.2310184,13.4970597 10.4296246,13.0374623 L10.4821,12.9331 L10.9821,12.0671 Z M7.15202,8.70107 C7.63032,8.97721 7.79419,9.5888 7.51805,10.0671 L7.01805,10.9331 C6.74191,11.4114 6.13032,11.5753 5.65202,11.2991 C5.17373,11.023 5.00985,10.4114 5.286,9.93312 L5.786,9.06709 C6.06214,8.5888 6.67373,8.42492 7.15202,8.70107 Z"/></g></svg>

<svg xmlns="http://www.w3.org/2000/svg" width="24" height="24"><g fill="none"><path d="M24 0v24H0V0zM12.594 23.258l-.012.002-.071.035-.02.004-.014-.004-.071-.036c-.01-.003-.019 0-.024.006l-.004.01-.017.428.005.02.01.013.104.074.015.004.012-.004.104-.074.012-.016.004-.017-.017-.427c-.002-.01-.009-.017-.016-.018m.264-.113-.014.002-.184.093-.01.01-.003.011.018.43.005.012.008.008.201.092c.012.004.023 0 .029-.008l.004-.014-.034-.614c-.003-.012-.01-.02-.02-.022m-.715.002a.023.023 0 0 0-.027.006l-.006.014-.034.614c0 .012.007.02.017.024l.015-.002.201-.093.01-.008.003-.011.018-.43-.003-.012-.01-.01z"/><path fill="#09244B" d="M12.41 3.654a4.304 4.304 0 0 1 5.571-.661l.18.128.323.242a3.79 3.79 0 0 1 1.51 2.81l.006.222V21a1 1 0 0 1-1.993.117L18 21V6.395a1.79 1.79 0 0 0-.586-1.325l-.13-.107-.323-.242a2.304 2.304 0 0 0-2.584-.122l-.153.102.758.438a4 4 0 0 1 1.566 5.277l-.102.187-.5.866a1 1 0 0 1-1.261.419l-.105-.053-8.66-5a1 1 0 0 1-.419-1.262l.053-.104.5-.866a4 4 0 0 1 5.277-1.565l.187.1zM6.75 15.397a1 1 0 0 1 .366 1.366l-.5.866a1 1 0 0 1-1.732-1l.5-.866a1 1 0 0 1 1.366-.366m2.232.134a1 1 0 0 1 1.785.896l-.053.104-.5.866a1 1 0 0 1-1.784-.895l.052-.105zm-3.83-3.366a1 1 0 0 1 .366 1.366l-.5.866a1 1 0 1 1-1.732-1l.5-.866a1 1 0 0 1 1.366-.366m3.598-.232a1 1 0 0 1 .366 1.366l-.5.866a1 1 0 0 1-1.732-1l.5-.866a1 1 0 0 1 1.366-.366m2.232.134a1 1 0 0 1 1.785.896l-.053.104-.5.866a1 1 0 0 1-1.784-.896l.052-.104zm-3.83-3.366a1 1 0 0 1 .366 1.366l-.5.866a1 1 0 1 1-1.732-1l.5-.866a1 1 0 0 1 1.366-.366"/></g></svg>
